X: 013
T: Little Peggy's Love
C: Mr Marshal
R: strathspey
M: C|
L: 1/8
Z: 2010 John Chambers <jc:trillian.mit.edu>
B: Abraham Mackintosh "A Collection of Strathspeys, Reels, Jigs &c.", Newcastle, after 1797, p._
F: http://imslp.info/files/imglnks/usimg/a/a8/IMSLP80796-PMLP164326-Abraham_Mackintosh_coll.pdf
K: F
%
V: 1
   F | C<FF>G A>GA>F | D<GG>A B>ABc | d<fc>A G>FG<A | C>FE>G F3 :|
|: c | f<cc>A f<cfa  | f<cfa g>fg>a | f<ccA  f>ba>g | f<dc>A F3 :|
%
V: 2 clef=bass middle=d
   z | f2f2 f2f2 | g2g2 g2g2 | f2f2 c'2c2 | A2c2 f2F :|
|: z | f2f2 f2f2 | f2f2 c2c2 | f2f2 f2f2  | B2c2 f2F :|

%%sep 2 1 500

